X:1
T:Title
%%score { ( 1 3 ) | ( 2 4 ) }
L:1/8
M:4/4
K:A
V:1 treble nm="Grand Piano"
V:3 treble 
V:2 bass 
V:4 bass 
V:1
 z4 z2[Q:1/4=100] [Cc]2 | [Cc]2 [Cc]2 [CB]2 [CA]2 | E2- [DE-]2 [CE]2 [A,C^E]2 | %3
 [A,DF]2 [A,DF]2 [G,DE]2 [G,DF]2 | E2- [DE-]2 [CE]2 [Ec]2 | [Ec]2 [Ec]2 [^Ed]2 [Ec]2 | c3 A A2 c2 | %7
 B3 =c .[^D^d]2 [B,A]F[Q:1/4=99][Q:1/4=97][Q:1/4=96][Q:1/4=94][Q:1/4=93][Q:1/4=91] | %8
[M:5/4] E2 F2 G6[Q:1/4=90][Q:1/4=88][Q:1/4=87][Q:1/4=85][Q:1/4=84][Q:1/4=82][Q:1/4=81][Q:1/4=79][Q:1/4=78][Q:1/4=76] | %9
[M:6/8][Q:1/4=100] A3 .E3 | G3 .F3 | d3 .c3 | B3 A3 | c3 .d3 | .c3 A3 | .B3 .^c3 | %16
[M:13/16] e/-e/-e/-e/-e/-e/-e/-e/-e/-e-<e |[M:3/4] A3 .E3 | G3 .F3 | d3 .e3 | d3 c3 | e3 .d3 | %22
 c2 z2 z2 |[M:15/16] z3 c->c z z3/2 | A3/2-A3/2-A3/2- A3 |] %25
V:2
 z4 z2 [A,,E,]2 | [A,,E,]2 [A,,E,]2 [A,,E,]2 A,,2 | z2 B,2 A,2 A,,2 | D,2 D,2 E,2 E,2 | %4
 z2 B,2 A,2 [A,,A,]2 | [A,,A,]2 [A,,A,]2 [C,G,]2 [C,G,]2 | [F,A,F]3 [F,CF] [F,CF]2 [F,A,F]2 | %7
 [B,,A,]2 [B,,A,]2 z[K:treble] c[K:bass] z A, |[M:5/4] G,2 [A,^D]2 [B,=D]6 | %9
[M:6/8] z [E,A,C][E,A,C] z [E,A,][E,A,C] | z [E,G,B,][E,G,B,] z [G,B,][G,B,D] | %11
 z [E,G,B,D][E,G,B,D] z[K:treble] [G,B,D][G,B,DF] | z [E,A,C][E,A,C] z [E,A,C][E,A,C] | %13
 z[K:treble] [G,C^E][G,CE][K:bass] z[K:treble] [G,CE][G,CEG] | %14
 z [A,CF][A,CF][K:bass] z [A,C][A,C] | z [F,B,^DF][F,B,D] z [F,B,DF][F,B,D] | %16
[M:13/16] z G,A,B,[EG][DEG]3/2 |[M:3/4] z [E,A,C] .[E,A,C]2 [E,A,][E,A,C] | %18
 z [E,G,B,] .[E,G,B,]2 [G,B,][G,B,D] | z [G,B,DE] .[G,B,DE]2[K:treble] [G,DE][DEG] | %20
 z [DF] .[DF]2 [CE][CE] | z [E,A,E] .[E,A,E]2 [E,A,E][E,A,E] | %22
 z [F,A,D] .[F,A,DE]2 [F,A,=C^D][F,A,CD] | %23
[M:15/16] z [G,B,D]/-[G,B,D]/[G,B,C] z [G,D]/-[G,D]/[K:treble][G,D^E]-[G,DE]3/2 | %24
 z [E,A,C]/-[E,A,C]/[E,A,C][E,A,C]3/2- [E,A,C]3 |] %25
V:3
 x8 | x8 | [A,C]2 z2 z4 | x8 | [A,C]2 z2 z4 | x8 | x8 | ^D2 D2 z2 D2 |[M:5/4] x10 | %9
[M:6/8] z EE z C^E | z DD z DF | z FF z FG | z EE z EE | z GG z Gc | z AA z FF | %15
 z A[FA=c] z A[FA^d] |[M:13/16] z EFGBB3/2 |[M:3/4] z E .E2 C^E | z D .D2 DF | z G .G2 GB | %20
 z A .A2 AA | z A .A2 A[Ac] | z E BA GF |[M:15/16] E^E/-E/E z E/-E/B-B3/2 | z E/-E/EE3/2- E3 |] %25
V:4
 x8 | x8 | A,,6 z2 | x8 | A,,6 z2 | x8 | x8 | z4 [B,,F,]2[K:treble][K:bass] B,,2 |[M:5/4] E,6 z4 | %9
[M:6/8] A,,3 C,3 | B,,3 E,3 | B,,3 E,3[K:treble] | A,,3 A,,3 | %13
 C,3[K:treble][K:bass] C,3[K:treble] | F,3[K:bass] F,3 | B,,3 B,,3 | %16
[M:13/16] E,/-E,/-E,/-E,/-E,/-E,/-E,/-E,/-E,/-E,-<E, |[M:3/4] A,,3 C,3 | B,,3 E,3 | %19
 E,3 E,3[K:treble] | A,3 A,3 | C,3 C,3 | D,3 ^D,3 |[M:15/16] E,3 E,3/2- E,3[K:treble] | %24
 A,,3/2-A,,3/2-A,,3/2- A,,3 |] %25

